svg/material-icons/balance/materialiconsround/20px.svg

<svg xmlns="http://www.w3.org/2000/svg" width="20" height="20" viewBox="0 0 20 20"><path d="M12.12 3.5C11.81 2.63 10.98 2 10 2s-1.81.63-2.12 1.5H3.75c-.41 0-.75.34-.75.75s.34.75.75.75h.75l-2.33 5.36c-.13.3-.18.65-.08.96.31.97 1.38 1.68 2.66 1.68s2.35-.71 2.66-1.68c.1-.31.05-.66-.08-.96L5 5h2.88c.22.64.73 1.15 1.37 1.37v9.13h-6.5c-.41 0-.75.34-.75.75s.34.75.75.75h14.5c.41 0 .75-.34.75-.75s-.34-.75-.75-.75h-6.5V6.37c.64-.22 1.15-.73 1.37-1.37H15l-2.33 5.36c-.13.3-.18.65-.08.96.31.97 1.38 1.68 2.66 1.68 1.28 0 2.35-.71 2.66-1.68.1-.31.05-.66-.08-.96L15.5 5h.75c.41 0 .75-.34.75-.75s-.34-.75-.75-.75h-4.13zm4.79 7.25h-3.32l1.66-3.82 1.66 3.82zm-10.5 0H3.09l1.66-3.82 1.66 3.82zM10 5c-.41 0-.75-.34-.75-.75s.34-.75.75-.75.75.34.75.75S10.41 5 10 5z"/></svg>

<svg xmlns="http://www.w3.org/2000/svg" enable-background="new 0 0 20 20" height="20" viewBox="0 0 20 20" width="20"><g><rect fill="none" height="20" width="20"/></g><g><path d="M12.12,3.5C11.81,2.63,10.98,2,10,2S8.19,2.63,7.88,3.5H3.75C3.34,3.5,3,3.84,3,4.25S3.34,5,3.75,5H4.5l-2.33,5.36 c-0.13,0.3-0.18,0.65-0.08,0.96C2.4,12.29,3.47,13,4.75,13s2.35-0.71,2.66-1.68c0.1-0.31,0.05-0.66-0.08-0.96L5,5h2.88 C8.1,5.64,8.61,6.15,9.25,6.37v9.13h-6.5C2.34,15.5,2,15.84,2,16.25C2,16.66,2.34,17,2.75,17h14.5c0.41,0,0.75-0.34,0.75-0.75 c0-0.41-0.34-0.75-0.75-0.75h-6.5V6.37C11.39,6.15,11.9,5.64,12.12,5H15l-2.33,5.36c-0.13,0.3-0.18,0.65-0.08,0.96 C12.9,12.29,13.97,13,15.25,13c1.28,0,2.35-0.71,2.66-1.68c0.1-0.31,0.05-0.66-0.08-0.96L15.5,5h0.75C16.66,5,17,4.66,17,4.25 c0-0.41-0.34-0.75-0.75-0.75H12.12z M16.91,10.75h-3.32l1.66-3.82L16.91,10.75z M6.41,10.75H3.09l1.66-3.82L6.41,10.75z M10,5 C9.59,5,9.25,4.66,9.25,4.25C9.25,3.84,9.59,3.5,10,3.5s0.75,0.34,0.75,0.75C10.75,4.66,10.41,5,10,5z"/></g></svg>
